gmdp.ru/build/img/svg/soft.svg

<svg width="81" height="81" viewBox="0 0 81 81" fill="none" xmlns="http://www.w3.org/2000/svg">
<g clip-path="url(#clip0_2800:107)">
<g filter="url(#filter0_d_2800:107)">
<path d="M0 0H48V81H0V76H43V5H0V0Z" fill="url(#paint0_linear_2800:107)"/>
<path d="M38 71H0V53.1197C1.24601 54.1579 2.62342 54.9849 4.10635 55.5659L4.79618 59.4746C4.8479 59.7677 4.98336 60.0373 5.18456 60.2477C5.38576 60.458 5.64317 60.5992 5.92261 60.6523L6.04049 60.6752C8.33315 61.1083 10.6811 61.1083 12.9737 60.6752L13.0916 60.6523C13.371 60.5992 13.6284 60.458 13.8296 60.2477C14.0308 60.0373 14.1663 59.7677 14.218 59.4746L14.9035 55.5842C16.484 54.961 17.9422 54.0766 19.252 52.9494L22.7972 54.2737C23.0646 54.3729 23.3544 54.3844 23.6281 54.3067C23.9018 54.2289 24.1465 54.0656 24.3297 53.8383L24.4083 53.7421C25.9276 51.8588 27.0934 49.7371 27.8836 47.4322L27.9229 47.3131C28.1106 46.7449 27.9491 46.1079 27.5081 45.7093L24.6528 43.1477C24.7881 42.2771 24.858 41.3881 24.858 40.5037C24.858 39.6193 24.7881 38.7258 24.6528 37.8597L27.5081 35.2982C27.7238 35.1044 27.8782 34.8462 27.9507 34.5581C28.0233 34.27 28.0105 33.9655 27.9142 33.6852L27.8749 33.566C27.0891 31.2597 25.9116 29.1219 24.3995 27.2561L24.321 27.1599C24.1373 26.9333 23.8926 26.7704 23.6191 26.6927C23.3455 26.615 23.0559 26.6261 22.7885 26.7246L19.2433 28.0489C17.9335 26.9216 16.4752 26.0327 14.8948 25.414L14.2093 21.5236C14.1576 21.2306 14.0221 20.9609 13.8209 20.7506C13.6197 20.5402 13.3623 20.3991 13.0829 20.346L12.965 20.3231C10.6947 19.8923 8.30208 19.8923 6.03176 20.3231L5.91388 20.346C5.63444 20.3991 5.37702 20.5402 5.17582 20.7506C4.97462 20.9609 4.83917 21.2306 4.78745 21.5236L4.09762 25.4324C2.62033 26.0208 1.23844 26.8436 0 27.8717V10H38V71Z" fill="url(#paint1_linear_2800:107)"/>
<path fill-rule="evenodd" clip-rule="evenodd" d="M1.83167 40.0455C1.83167 44.4949 5.26771 48.1012 9.5071 48.1012C13.7465 48.1012 17.1825 44.4949 17.1825 40.0455C17.1825 35.596 13.7465 31.9897 9.5071 31.9897C5.26771 31.9897 1.83167 35.596 1.83167 40.0455ZM6.05359 36.4208C6.97919 35.4494 8.20167 34.9178 9.5071 34.9178C10.1489 34.9158 10.7847 35.0476 11.3776 35.3056C11.9704 35.5636 12.5085 35.9427 12.9606 36.4208C13.8818 37.3923 14.3927 38.6754 14.3927 40.0455C14.3927 41.4156 13.8818 42.6987 12.9606 43.6701C12.035 44.637 10.8125 45.1731 9.5071 45.1731C8.20167 45.1731 6.97919 44.637 6.05359 43.6701C5.13237 42.6987 4.62154 41.4156 4.62154 40.0455C4.62154 38.6754 5.13237 37.3923 6.05359 36.4208Z" fill="url(#paint2_linear_2800:107)"/>
<path d="M53 66.9962C67.702 66.7536 79.5455 54.7599 79.5455 40C79.5455 25.2401 67.702 13.2464 53 13.0037V33.47C56.4032 33.7032 59.0914 36.5377 59.0914 40C59.0914 43.4623 56.4032 46.2968 53 46.53V66.9962Z" fill="url(#paint3_linear_2800:107)"/>
</g>
</g>
<defs>
<filter id="filter0_d_2800:107" x="-4" y="0" width="87.5449" height="89" filterUnits="userSpaceOnUse" color-interpolation-filters="sRGB">
<feFlood flood-opacity="0" result="BackgroundImageFix"/>
<feColorMatrix in="SourceAlpha" type="matrix" values="0 0 0 0 0 0 0 0 0 0 0 0 0 0 0 0 0 0 127 0" result="hardAlpha"/>
<feOffset dy="4"/>
<feGaussianBlur stdDeviation="2"/>
<feColorMatrix type="matrix" values="0 0 0 0 0 0 0 0 0 0 0 0 0 0 0 0 0 0 0.25 0"/>
<feBlend mode="normal" in2="BackgroundImageFix" result="effect1_dropShadow_2800:107"/>
<feBlend mode="normal" in="SourceGraphic" in2="effect1_dropShadow_2800:107" result="shape"/>
</filter>
<linearGradient id="paint0_linear_2800:107" x1="39.7727" y1="0" x2="39.7727" y2="81" gradientUnits="userSpaceOnUse">
<stop stop-color="#00FBEE"/>
<stop offset="1" stop-color="#00FBEE" stop-opacity="0.2"/>
</linearGradient>
<linearGradient id="paint1_linear_2800:107" x1="39.7727" y1="0" x2="39.7727" y2="81" gradientUnits="userSpaceOnUse">
<stop stop-color="#00FBEE"/>
<stop offset="1" stop-color="#00FBEE" stop-opacity="0.2"/>
</linearGradient>
<linearGradient id="paint2_linear_2800:107" x1="39.7727" y1="0" x2="39.7727" y2="81" gradientUnits="userSpaceOnUse">
<stop stop-color="#00FBEE"/>
<stop offset="1" stop-color="#00FBEE" stop-opacity="0.2"/>
</linearGradient>
<linearGradient id="paint3_linear_2800:107" x1="39.7727" y1="0" x2="39.7727" y2="81" gradientUnits="userSpaceOnUse">
<stop stop-color="#00FBEE"/>
<stop offset="1" stop-color="#00FBEE" stop-opacity="0.2"/>
</linearGradient>
<clipPath id="clip0_2800:107">
<rect width="81" height="81" fill="white"/>
</clipPath>
</defs>
</svg>

<svg xmlns="http://www.w3.org/2000/svg" width="81" height="81" fill="none">
  <g clip-path="url(#a)">
    <g filter="url(#b)">
      <path fill="url(#c)" d="M0 0h48v81H0v-5h43V5H0V0Z"/>
      <path fill="url(#d)" d="M38 71H0V53.12a14.91 14.91 0 0 0 4.106 2.446l.69 3.909c.052.293.187.562.389.773.2.21.458.351.738.404l.117.023a18.66 18.66 0 0 0 6.934 0l.118-.023c.279-.053.536-.194.738-.404.2-.21.336-.48.388-.773l.685-3.89a15.19 15.19 0 0 0 4.349-2.636l3.545 1.325c.268.099.557.11.831.033.274-.078.518-.241.702-.469l.078-.096a20.7 20.7 0 0 0 3.476-6.31l.039-.119a1.527 1.527 0 0 0-.415-1.604l-2.855-2.561a17.224 17.224 0 0 0 0-5.288l2.855-2.562a1.48 1.48 0 0 0 .443-.74c.072-.288.06-.593-.037-.873l-.04-.119a20.54 20.54 0 0 0-3.474-6.31l-.079-.096a1.397 1.397 0 0 0-.702-.467 1.34 1.34 0 0 0-.83.032l-3.546 1.324a15.089 15.089 0 0 0-4.348-2.635l-.686-3.89a1.493 1.493 0 0 0-.388-.773 1.378 1.378 0 0 0-.738-.405l-.118-.023c-2.27-.43-4.663-.43-6.933 0l-.118.023c-.28.053-.537.194-.738.405-.201.21-.337.48-.389.773l-.69 3.908A15.254 15.254 0 0 0 0 27.872V10h38v61Z"/>
      <path fill="url(#e)" fill-rule="evenodd" d="M1.832 40.045c0 4.45 3.436 8.056 7.675 8.056 4.24 0 7.676-3.606 7.676-8.056 0-4.449-3.437-8.055-7.676-8.055-4.24 0-7.675 3.606-7.675 8.055Zm4.222-3.624c.925-.972 2.148-1.503 3.453-1.503a4.648 4.648 0 0 1 1.87.388 4.85 4.85 0 0 1 1.584 1.115 5.235 5.235 0 0 1 1.432 3.624c0 1.37-.511 2.654-1.432 3.625-.926.967-2.149 1.503-3.454 1.503-1.305 0-2.528-.536-3.453-1.503a5.234 5.234 0 0 1-1.432-3.625c0-1.37.51-2.653 1.432-3.624Z" clip-rule="evenodd"/>
      <path fill="url(#f)" d="M53 66.996C67.702 66.754 79.546 54.76 79.546 40c0-14.76-11.844-26.754-26.546-26.996V33.47a6.546 6.546 0 0 1 0 13.06v20.466Z"/>
    </g>
    <filter id="b" width="87.545" height="89" x="-4" y="0" color-interpolation-filters="sRGB" filterUnits="userSpaceOnUse">
      <feFlood flood-opacity="0" result="BackgroundImageFix"/>
      <feColorMatrix in="SourceAlpha" result="hardAlpha" values="0 0 0 0 0 0 0 0 0 0 0 0 0 0 0 0 0 0 127 0"/>
      <feOffset dy="4"/>
      <feGaussianBlur stdDeviation="2"/>
      <feColorMatrix values="0 0 0 0 0 0 0 0 0 0 0 0 0 0 0 0 0 0 0.25 0"/>
      <feBlend in2="BackgroundImageFix" result="effect1_dropShadow_2800:107"/>
      <feBlend in="SourceGraphic" in2="effect1_dropShadow_2800:107" result="shape"/>
    </filter>
    <linearGradient id="c" x1="39.773" x2="39.773" y1="0" y2="81" gradientUnits="userSpaceOnUse">
      <stop stop-color="#00FBEE"/>
      <stop offset="1" stop-color="#00FBEE" stop-opacity=".2"/>
    </linearGradient>
    <linearGradient id="d" x1="39.773" x2="39.773" y1="0" y2="81" gradientUnits="userSpaceOnUse">
      <stop stop-color="#00FBEE"/>
      <stop offset="1" stop-color="#00FBEE" stop-opacity=".2"/>
    </linearGradient>
    <linearGradient id="e" x1="39.773" x2="39.773" y1="0" y2="81" gradientUnits="userSpaceOnUse">
      <stop stop-color="#00FBEE"/>
      <stop offset="1" stop-color="#00FBEE" stop-opacity=".2"/>
    </linearGradient>
    <linearGradient id="f" x1="39.773" x2="39.773" y1="0" y2="81" gradientUnits="userSpaceOnUse">
      <stop stop-color="#00FBEE"/>
      <stop offset="1" stop-color="#00FBEE" stop-opacity=".2"/>
    </linearGradient>
    <clipPath id="a">
      <path fill="#fff" d="M0 0h81v81H0z"/>
    </clipPath>
  </g>
</svg>
